source/img/advantages-icon-1.svg

<svg width="33" height="38" fill="none" xmlns="http://www.w3.org/2000/svg"><path d="M16.5 38C25.575 38 33 30.6452 33 21.6559c-9.075 0-16.5 7.2527-16.5 16.3441ZM4.74375 16.6505c0 2.5538 2.0625 4.4947 4.5375 4.4947.92815 0 1.85625-.3065 2.57815-.8172v.3064c0 2.5538 2.0625 4.4946 4.5375 4.4946 2.5781 0 4.5375-2.043 4.5375-4.4946v-.3064c.7218.5107 1.65.8172 2.5781.8172 2.5781 0 4.5375-2.0431 4.5375-4.4947 0-1.8387-1.0312-3.3709-2.5781-4.086 1.5469-.715 2.5781-2.2473 2.5781-4.08601 0-2.55376-2.0625-4.49462-4.5375-4.49462-.9281 0-1.8563.30645-2.5781.8172v-.30645C20.9344 1.94086 18.8719 0 16.3969 0c-2.5782 0-4.5375 2.04301-4.5375 4.49462v.30645c-.7219-.51075-1.65-.8172-2.57815-.8172-2.57813 0-4.5375 2.04301-4.5375 4.49462 0 1.83871 1.03125 3.37101 2.57813 4.08601-1.44375.7151-2.57813 2.2473-2.57813 4.086ZM16.5 7.96774c2.5781 0 4.5375 2.04306 4.5375 4.49466 0 2.5537-2.0625 4.4946-4.5375 4.4946-2.5781 0-4.5375-2.043-4.5375-4.4946S13.9219 7.96774 16.5 7.96774ZM0 21.6559C0 30.6452 7.425 38 16.5 38c0-9.0914-7.425-16.3441-16.5-16.3441Z" fill="#63D1BB"/></svg>

<svg width="33" height="38" viewBox="0 0 33 38" fill="none" xmlns="http://www.w3.org/2000/svg">
<path d="M16.5 38C25.575 38 33 30.6452 33 21.6559C23.925 21.6559 16.5 28.9086 16.5 38ZM4.74375 16.6505C4.74375 19.2043 6.80625 21.1452 9.28125 21.1452C10.2094 21.1452 11.1375 20.8387 11.8594 20.328V20.6344C11.8594 23.1882 13.9219 25.129 16.3969 25.129C18.975 25.129 20.9344 23.086 20.9344 20.6344V20.328C21.6562 20.8387 22.5844 21.1452 23.5125 21.1452C26.0906 21.1452 28.05 19.1021 28.05 16.6505C28.05 14.8118 27.0188 13.2796 25.4719 12.5645C27.0188 11.8495 28.05 10.3172 28.05 8.47849C28.05 5.92473 25.9875 3.98387 23.5125 3.98387C22.5844 3.98387 21.6562 4.29032 20.9344 4.80107V4.49462C20.9344 1.94086 18.8719 0 16.3969 0C13.8187 0 11.8594 2.04301 11.8594 4.49462V4.80107C11.1375 4.29032 10.2094 3.98387 9.28125 3.98387C6.70312 3.98387 4.74375 6.02688 4.74375 8.47849C4.74375 10.3172 5.775 11.8495 7.32188 12.5645C5.87813 13.2796 4.74375 14.8118 4.74375 16.6505ZM16.5 7.96774C19.0781 7.96774 21.0375 10.0108 21.0375 12.4624C21.0375 15.0161 18.975 16.957 16.5 16.957C13.9219 16.957 11.9625 14.914 11.9625 12.4624C11.9625 10.0108 13.9219 7.96774 16.5 7.96774ZM0 21.6559C0 30.6452 7.425 38 16.5 38C16.5 28.9086 9.075 21.6559 0 21.6559Z" fill="#63D1BB"/>
</svg>
